X:1
T:Nocturne No. 1
T:Symphony No. 5 
T:L. van Beethoven, Op. 67. 
T:Easy Piano
T: 
C:Gabriel Fauré
%%score { 1 | 2 | 3 }
L:1/8
Q:1/2=90
M:2/4
K:C
V:1 treble nm="Piano" snm="Pno."
V:2 treble 
V:3 bass 
V:1
"^Allegro con brio." z4 | z4 | z4 | z4 | z4 | z4 | z4 | z4 | z4 | z4 | z4 | z4 | z4 | z4 | z4 | %15
 z4 | z4 | z4 | z4 | z4 | z4 | z4 | z4 | z4 | z4 | z4 | z4 | z4 | z4 | z4 | z4 | z4 | z4 | z4 | %34
 z4 | z4 | z4 | z4 | z4 | z4 | z4 | z4 | z4 | z4 | z4 | z4 | z4 | z4 | z4 | z4 | z4 | z4 | z4 | %53
 z4 | z4 | z4 | %56
V:2
 z!ff! !>!E"_\n"!>!E!>!E | !>!!fermata!C4 | z !>!D!>!D!>!D | !>!B,4- | !fermata!B,4 | z!p! (EEE | %6
 C)(FFF | E)(ccc | A4) | z (EEE | B,)(FFF | E)(ddd | B4) | z (eed | c4) | z (eed | c4) | %17
 z"_cresc." !tenuto!e!tenuto!e!tenuto!d |!f! !^!c2 z2 | !^!A2 z2 | !^![^Ge]4 | z!ff! !>!F!>!F!>!F | %22
 !>!D4- | !fermata!D4 | z!p! (FFF | D) z z2 | z (F, F,F, | D,) z z2 | z (FFF | D) z z2 | %30
[K:bass] z (F, F,F, | D,) z z2 |[K:treble] z EAA |"_cresc." (A4 | ^G) GBB | (B4 | A)AAc | (cB)Bd | %38
 (d^c)ce | (ed)df | (fe)eg | (gf)fa | (a^g)gb |!ff! a (c'c'c' | a eee | c AAA | EC CC) | %47
 z (d'd'd' | b ^ggg | e ddd | B)!>!^G !>!G!>!G | !>!A4 | z !>![D^G] !>![DG]!>![DG] | !>![CA]4 | %54
 z!fff! !>![d^g] !>![dg]!>![dg] | !>!!fermata![ca]4 | %56
V:3
 z !>!E,,!>!E,,!>!E,, |!ped! !>!!fermata!C,,4!ped-up! | z !>!D,,!>!D,,!>!D,, |!ped! !>!B,,,4- | %4
 !fermata!B,,,4!ped-up! | z4 | [A,,E,]4- | [A,,E,]4- | [A,,E,]4 | z4 | [^G,,E,]4- | [G,,E,]4- | %12
 [G,,E,]4 | z4 | z (C,C,D, | E,4) | z (C,C,D, | E,)!tenuto!E, !tenuto!E,!tenuto!D, | !^!C,2 z2 | %19
 !^!A,,2 z2 |!ped! !^!E,,4!ped-up! | z !>!F,,!>!F,,!>!F,, |!ped! !>!D,,4- | !fermata!D,,4!ped-up! | %24
 z4 | z (B,B,B, | ^G,) z z2 | z (E,,E,,E,, | A,,) z z2 | z (B,B,B, | ^G,) z z2 | z (E,,E,,E,, | %32
 A,,) z z2 | z A,,A,,A,, | A,,2 z2 | z A,,A,,A,, | A,,2 z2 |!ped! A,,2 z2!ped-up! | %38
!ped! A,,2 z2!ped-up! |!ped! A,,2 z2!ped-up! |!ped! A,,2 z2!ped-up! |!ped! A,,2 z2!ped-up! | %42
!ped! A,,2 z2!ped-up! |!ped! A,,2 z2 | A,,2 z2 | A,,2 z2 | A,,2 z z!ped-up! |!ped! E,,2 z2 | %48
 E,,2 z2 | E,,2 z2 | E,,!<(!!>!E,, !>!E,,!>!E,,!ped-up!!<)! |!ped! !>!A,,4!ped-up! | %52
!ped! z !>!E,, !>!E,,!>!E,,!ped-up! |!ped! !>!A,,4!ped-up! | z!ped! !>!E,, !>!E,,!>!E,,!ped-up! | %55
!ped! !>!!fermata!A,,,4!ped-up! | %56

